src/pos-icons/file-upload-outline.svg

<svg height="24" viewBox="0 0 24 24" width="24" xmlns="http://www.w3.org/2000/svg"><path d="m14 2 6 6v12a2 2 0 0 1 -2 2h-12a2 2 0 0 1 -2-2v-16a2 2 0 0 1 2-2zm4 18v-11h-5v-5h-7v16zm-6-8 4 4h-2.5v3h-3v-3h-2.5z"/></svg>

<?xml version="1.0" encoding="UTF-8"?><!DOCTYPE svg PUBLIC "-//W3C//DTD SVG 1.1//EN" "http://www.w3.org/Graphics/SVG/1.1/DTD/svg11.dtd"><svg xmlns="http://www.w3.org/2000/svg" xmlns:xlink="http://www.w3.org/1999/xlink" version="1.1" id="mdi-file-upload-outline" width="24" height="24" viewBox="0 0 24 24"><path d="M14,2L20,8V20A2,2 0 0,1 18,22H6A2,2 0 0,1 4,20V4A2,2 0 0,1 6,2H14M18,20V9H13V4H6V20H18M12,12L16,16H13.5V19H10.5V16H8L12,12Z" /></svg>
